svgs/regular/truck-droplet.svg

<svg xmlns="http://www.w3.org/2000/svg" viewBox="0 0 640 512"><!--! Font Awesome Pro 6.4.2 by @fontawesome - https://fontawesome.com License - https://fontawesome.com/license (Commercial License) Copyright 2023 Fonticons, Inc. --><path d="M64 48c-8.8 0-16 7.2-16 16V352c0 8.8 7.2 16 16 16H76.8c16.6-28.7 47.6-48 83.2-48s66.6 19.3 83.2 48H320h32c8.8 0 16-7.2 16-16V64c0-8.8-7.2-16-16-16H64zM480 512c-53 0-96-43-96-96h-8H352 320 256c0 53-43 96-96 96s-96-43-96-96c-35.3 0-64-28.7-64-64V64C0 28.7 28.7 0 64 0H352c35.3 0 64 28.7 64 64V96h42.7c14.9 0 29.1 5.9 39.6 16.4l93.3 93.3c10.5 10.5 16.4 24.7 16.4 39.6V368h8c13.3 0 24 10.7 24 24s-10.7 24-24 24H576c0 53-43 96-96 96zm78-272c-.1-.1-.2-.3-.4-.4l-93.3-93.3c-1.5-1.5-3.5-2.3-5.7-2.3H416v96H558zM160 464a48 48 0 1 0 0-96 48 48 0 1 0 0 96zm368-48a48 48 0 1 0 -96 0 48 48 0 1 0 96 0zM208 272c-39.8 0-72-29.6-72-66c0-27 39.4-82.9 59.9-110.3c6.1-8.2 18.1-8.2 24.2 0C240.6 123 280 179 280 206c0 36.5-32.2 66-72 66z"/></svg>

<svg xmlns="http://www.w3.org/2000/svg" viewBox="0 0 640 512"><!--! Font Awesome Pro 6.1.1 by @fontawesome - https://fontawesome.com License - https://fontawesome.com/license (Commercial License) Copyright 2022 Fonticons, Inc. --><path d="M136 205.1C136 179 175.4 123 195.9 95.71C202 87.54 213.1 87.54 220.1 95.71C240.6 123 280 179 280 205.1C280 242.4 247.8 272 208 272C168.2 272 136 242.4 136 205.1zM480 512C426.1 512 384 469 384 416H256C256 469 213 512 160 512C106.1 512 64 469 64 416C28.65 416 0 387.3 0 352V64C0 28.65 28.65 0 64 0H352C387.3 0 416 28.65 416 64V96H458.7C473.6 96 487.8 101.9 498.3 112.4L591.6 205.7C602.1 216.2 608 230.4 608 245.3V368H616C629.3 368 640 378.7 640 392C640 405.3 629.3 416 616 416H576C576 469 533 512 480 512H480zM48 64V352C48 360.8 55.16 368 64 368H76.84C93.44 339.3 124.5 320 160 320C195.5 320 226.6 339.3 243.2 368H352C360.8 368 368 360.8 368 352V64C368 55.16 360.8 48 352 48H64C55.16 48 48 55.16 48 64zM558 240C557.9 239.9 557.8 239.7 557.7 239.6L464.4 146.3C462.9 144.8 460.9 144 458.7 144H416V240L558 240zM160 464C186.5 464 208 442.5 208 416C208 389.5 186.5 368 160 368C133.5 368 112 389.5 112 416C112 442.5 133.5 464 160 464zM480 368C453.5 368 432 389.5 432 416C432 442.5 453.5 464 480 464C506.5 464 528 442.5 528 416C528 389.5 506.5 368 480 368z"/></svg>
